design/Devices/trip_curve.svg

<svg width="24" height="24" viewBox="0 0 24 24"  xmlns="http://www.w3.org/2000/svg">
<path fill-rule="evenodd" clip-rule="evenodd" d="M7 3.26756C7.5978 3.61337 8 4.25972 8 5C8 5.17916 7.97644 5.35282 7.93226 5.51804L11.482 9.06774C11.6472 9.02356 11.8208 9 12 9C13.1046 9 14 9.89543 14 11C14 11.7403 13.5978 12.3866 13 12.7324V14.5H17V18.2676C17.3036 18.4432 17.5568 18.6964 17.7324 19H19V21H17.7324C17.3866 21.5978 16.7403 22 16 22C14.8954 22 14 21.1046 14 20C14 19.2597 14.4022 18.6134 15 18.2676V16.5H11V12.7324C10.4022 12.3866 10 11.7403 10 11C10 10.8208 10.0236 10.6472 10.0677 10.482L6.51804 6.93226C6.35282 6.97644 6.17916 7 6 7C4.89543 7 4 6.10457 4 5C4 4.25972 4.4022 3.61337 5 3.26756V2H7V3.26756ZM17 20C17 20.5523 16.5523 21 16 21C15.4477 21 15 20.5523 15 20C15 19.4477 15.4477 19 16 19C16.5523 19 17 19.4477 17 20ZM12 12C12.5523 12 13 11.5523 13 11C13 10.4477 12.5523 10 12 10C11.4477 10 11 10.4477 11 11C11 11.5523 11.4477 12 12 12ZM7 5C7 5.55228 6.55228 6 6 6C5.44772 6 5 5.55228 5 5C5 4.44772 5.44772 4 6 4C6.55228 4 7 4.44772 7 5Z" />
</svg>

<svg xmlns="http://www.w3.org/2000/svg" width="24" height="24" viewBox="0 0 24 24"><path d="M7,3.27A2,2,0,0,1,8,5a1.81,1.81,0,0,1-.07.52l3.55,3.55A1.81,1.81,0,0,1,12,9a2,2,0,0,1,2,2,2,2,0,0,1-1,1.73V14.5h4v3.77a2,2,0,0,1,.73.73H19v2H17.73A2,2,0,0,1,16,22a2,2,0,0,1-2-2,2,2,0,0,1,1-1.73V16.5H11V12.73A2,2,0,0,1,10,11a1.81,1.81,0,0,1,.07-.52L6.52,6.93A1.81,1.81,0,0,1,6,7,2,2,0,0,1,4,5,2,2,0,0,1,5,3.27V2H7ZM17,20a1,1,0,1,1-1-1A1,1,0,0,1,17,20Zm-5-8a1,1,0,1,0-1-1A1,1,0,0,0,12,12ZM7,5A1,1,0,1,1,6,4,1,1,0,0,1,7,5Z" fill-rule="evenodd"/><rect width="24" height="24" fill="none"/></svg>
